!!!OTL@@DE: Fuchslied
!!!COM: Volksweise. (Bei Hall' ist eine M&uuml;hl')
!!!OMD: Lebhaft
!!!LYR: Volkslied des 18. Jahrh.
!!!LDT: <1800
!!!OCL: Erk, Ludwig
!!!GCO: Deutscher Liederschatz, Band 1
**kern	**kern	**kern
*staff3	*staff2	*staff1
*Ipiano	*Ipiano	*Ivox
*clefF4	*clefG2	*clefG2
*k[f#]	*k[f#]	*k[f#]
*G:	*G:	*G:
*M2/4	*M2/4	*M2/4
*MM108	*MM108	*MM108
8r	8d/	8d/
=1	=1	=1
4GG/	8B/ 8d/ 8g/L	8g/
.	8B/ 8d/ 8g/	8g/
4G\	8B/ 8d/ 8g/	8g/
.	8B/ 8d/ 8g/J	8g/
=2	=2	=2
4GG/	4.B/ 4.d/ 4.g/	4.g/
4D/	.	.
.	8d/ 8f#/ 8a/	8a/
=3	=3	=3
4G\	8d/ 8g/ 8b/L	8b\
.	8d/ 8g/ 8b/	8b\
4GG/	8d/ 8g/ 8b/	8b\
.	8d/ 8g/ 8b/J	8b\
=4	=4	=4
4G\	4.d/ 4.g/ 4.b/	4.b\
4D\	.	.
.	8d/ 8a/ 8cc/	8cc\
=5	=5	=5
4GG/	8d/ 8b/ 8dd/L	8dd\
.	8d/ 8b/ 8dd/	8dd\
4G\	8d/ 8b/ 8dd/	8dd\
.	8d/ 8b/ 8dd/J	8dd\
=6	=6	=6
4FF#/	8d/ 8b/ 8dd/L	8dd\
.	8d/ 8a/ 8cc/J	16cc\
.	.	16cc\
4F#\	4d/ 4a/ 4cc/	4cc\
=7	=7	=7
4G\	4d/ 4g/ 4b/	4b\
4BB/	4d/ 4g/ 4b/	4b\
=8	=8	=8
4D\	8d/ 8g/ 8b/L	8b\
.	8d/ 8f#/ 8a/	16a/
.	.	16a/
8D\L	8d/ 8f#/ 8a/	8a/
8F#\J	8d/ 8a/ 8dd/J	8dd\
=9	=9	=9
4G\	8d/ 8g/ 8b/L	8b\
.	8d/ 8g/ 8b/J	8b\
4D\	8c/ 8f#/ 8a/L	8a/
.	8c/ 8f#/ 8a/J	8a/
=10	=10	=10
8G/L	4B/ 4d/ 4g/	4g/
8D/	.	.
8GG/J	8r	8r
==	==	==
*-	*-	*-
!!!ENC: Craig Stuart Sapp
!!!END: 2004/06/28/
!!!EFL: 197/651
